X:1
T:Gymnopedie No. 1
T:Gymnopedie No. 1
T:Erik Satie
C:Erik Satie
L:1/8
Q:1/4=72
M:3/4
K:D
V:1 tab stafflines=6 strings=E2,A2,D3,G3,B3,E4 nm="Violão" snm="Viol."
V:1
|:!p! !5!A,,2 [!3!C!2!E!1!^G]3 x | !6!E,,2 [!3!B,!2!^D!1!^G]3 x | !5!A,,2 [!3!C!2!E!1!^G]3 x | %3
 !6!E,,2 [!3!B,!2!^D!1!^G]3 x | !5!A,,2 [!3!C!2!E!1!^G]2 !1!B2 | %5
!<(! [!6!E,,!1!A]2 [!3!B,!2!^D!1!^G]2 !2!D2!<)! |!mp! [!5!A,,!3!C]2 [!4!^G,!2!^D]2 !1!E2 | %7
 [!6!E,,!3!B,]2 [!3!B,!2!^D!1!^G]3 x | [!5!A,,!4!^G,]2 [!3!C!2!E!1!^G]3 x | %9
 !6!E,,2 [!3!B,!2!^D!1!^G]3 x |!p! !5!A,,2 [!3!C!2!E!1!^G]3 x | !6!E,,2 [!3!B,!2!^D!1!^G]3 x | %12
!<(! !5!A,,2 [!3!C!2!E!1!^G]2 !1!B2!<)! |!mp! [!6!E,,!1!A]2 [!3!B,!2!^D!1!^G]2 !2!D2 | %14
 [!5!A,,!3!C]2 [!4!^G,!2!^D]2 !1!E2 | [!6!E,,!3!B,]2 [!3!B,!2!^D!1!^G]3 x | %16
 !>![!6!^G,,!2!^D]2!mf! [!4!^G,!3!B,!2!D]3 x |!>(! [!6!^G,,!1!^G]2 [!4!^G,!3!C!2!E]3 x!>)! | %18
!mp! [!6!F,,!4!F,]2 [!4!F,!3!A,!2!C]3 x | [!6!F,,!4!F,]2"^Dolce" [!3!A,!2!C!1!A]3 x | %20
 !6!E,,2 [!3!G,!2!B,!1!E]3 x |!mf! [!6!F,,!3!B,]2 [!4!F,!3!B,!2!C]2 !2!D2 | %22
 [!6!E,,!2!F]2 [!4!A,!3!C!2!E]2 !3!C2 | [!6!E,,!1!E]2 [!4!F,!3!A,]2 !2!C2 | %24
 [!6!E,,!1!E]2 [!4!F,!3!B,]3 x | !6!E,,2 [!4!F,!3!B,]2 !1!E2 | %26
 [!6!E,,!2!F]2 [!4!B,!3!D!2!G]2 !2!A2 | !>![!6!E,,!1!B]2 [!5!F,!4!B,!3!D]2 !1!E2 | %28
 [!6!E,,!1!F]2 [!4!F,!3!A,!2!E]2 !2!C2 | [!6!E,,!1!E]2 [!3!G,!2!B,]3 x | %30
 !6!E,,2 [!5!B,,!3!G,!2!B,]2 !1!E2 | !>![!6!F,,!1!A]2!f! [!5!C,!4!F,]3 x |1 %32
 [!6!^G,,!1!^G]2 [!3!B,!2!^D]3 x ||1 !2!C2 [!4!E,!3!^G,!2!B,]2 !2!C2 ||1 %34
 !2!^D2 [!5!^D,!4!F,!3!B,!2!E]2 !2!F2 ||1 !2!^D2 [!4!^D,!3!^G,!2!B,!1!E]2 !1!F2 ||1 %36
 [!6!F,,!1!^G]2 !5!C,2 !4!F,2 ||1!mp! !>![!4!F,!3!C!2!E!1!A]3 x!>(! !6!E,,2!>)! ||1 %38
!mp! !arpeggio!!>![!3!^G!2!B!1!e]6 :|2O !>![!4!F,!1!G]2!f! [!2!B,!1!E]3 x || %40
 [!6!F,,!2!C]2 [!5!B,,!3!G,!2!D]2 !1!G2 | !>![!6!F,,!1!F]2 [!5!D,!4!F,!3!B,!2!E]2 !3!D2 | %42
 [!6!F,,!1!F]2 [!5!B,,!3!G,!2!B,!1!E]2 !2!D2 | [!6!F,,!3!G,]2 !5!C,2 !4!F,2 | %44
 [!3!C!2!E!1!A]3 x !6!B,,2 | !arpeggio![!3!D!2!F!1!d]4 !6!E,,2 | !arpeggio![!3!G!2!B!1!e]4 x2 |] %47

